src/assets/svg/hero-card-3.svg

<svg width="55" height="55" viewBox="0 0 55 55" fill="none" xmlns="http://www.w3.org/2000/svg">
<path fill-rule="evenodd" clip-rule="evenodd" d="M36.5585 10.9188C34.7552 11.7313 33.7841 13.3166 33.6454 15.655C33.4671 18.786 32.7536 19.8561 31.9412 18.2311C28.9885 12.4051 18.8425 10.7603 17.812 15.9522C17.6931 16.5071 17.6733 16.5071 16.3852 16.5071C10.7177 16.4674 7.44803 27.6241 11.5104 33.1529C11.7878 33.5295 11.3915 34.8572 10.2223 37.4531C9.5684 38.8997 9.64765 39.1375 10.797 39.6528C11.8473 40.1284 12.1842 39.633 14.2847 34.4807C14.6018 33.7078 14.6018 32.8359 14.2847 32.063C13.8091 30.9137 13.2344 29.6454 12.7787 28.7933C11.2726 25.8407 12.2634 21.6792 15.0774 19.1823C17.6535 16.9034 20.2891 18.786 18.03 21.3027C14.9188 24.7507 17.8715 28.932 22.4491 27.5647C26.5511 26.3559 26.7096 20.6289 22.6671 19.539C20.5269 18.9643 19.6153 15.9522 21.2402 14.8623C25.2828 12.1276 30.3162 17.7357 29.7812 24.394C29.5038 27.8619 32.9915 26.2766 32.9915 23.8986C32.9915 23.2843 33.15 22.9474 33.7842 22.2142C35.1317 20.6487 35.7658 19.004 36.0631 16.1702C36.3405 13.5544 39.7489 11.3746 40.7199 13.1977C41.3343 14.3471 40.3632 20.4902 39.2733 22.2539C38.4013 23.6807 35.31 27.1882 34.3191 27.8619C33.0311 28.7339 33.1699 29.4869 34.6957 29.7445C35.4488 29.8634 35.5677 29.8238 36.9746 28.6546C40.4822 25.7416 41.5919 24.3148 42.4242 21.5801C43.0187 19.6381 43.8906 20.074 43.9104 22.0953C43.9302 26.237 39.5904 31.0722 35.4289 32.7764C34.4381 33.1926 34.3786 33.6484 35.2307 34.2825C36.499 35.2139 38.758 34.2429 41.354 31.6469C42.979 30.0219 43.0583 29.9823 42.8799 30.6362C41.9089 34.4014 38.7779 37.5126 34.7948 38.6818C32.1592 39.4546 29.702 40.0095 27.859 40.2473C27.6014 40.3265 26.0359 40.2671 24.728 41.6542C22.8058 43.6953 25.7585 45.3203 26.7691 43.6953C27.5222 42.4667 27.7599 42.3478 29.2264 42.328C30.673 42.328 30.7522 42.3082 34.8542 41.1588C38.3419 40.1878 40.4029 39.1772 41.8891 37.7306C45.0201 34.659 46.328 30.2201 44.7031 28.0799C44.3464 27.6043 44.3463 27.5845 44.921 26.3361C46.0902 23.8392 45.8128 20.5496 44.2671 18.6869C43.7122 18.0131 43.6726 17.8348 43.6132 16.2098C43.5339 12.3654 39.7093 9.49204 36.5585 10.9188ZM22.35 20.7478C23.9948 21.5801 23.0238 25.8803 21.1016 26.3559C20.4278 26.5342 17.4355 24.9885 19.7738 21.7585C20.8439 20.2722 21.161 20.1335 22.35 20.7478Z" fill="#000001"/>
</svg>

<svg xmlns="http://www.w3.org/2000/svg" width="55" height="55" fill="none">
  <path fill="#000001" fill-rule="evenodd" d="M36.6 11c-1.8.7-2.8 2.3-3 4.7-.1 3-.8 4.2-1.7 2.5-3-5.8-13-7.4-14-2.2-.2.5-.2.5-1.5.5-5.7 0-9 11.1-4.9 16.7.3.3-.1 1.7-1.3 4.3-.6 1.4-.6 1.6.6 2.2 1 .4 1.4 0 3.5-5.2.3-.8.3-1.7 0-2.4-.5-1.2-1-2.5-1.5-3.3-1.5-3-.5-7.1 2.3-9.6 2.6-2.3 5.2-.4 3 2.1-3.2 3.5-.2 7.6 4.3 6.3 4.2-1.2 4.3-7 .3-8-2.2-.6-3-3.6-1.5-4.7 4-2.8 9.1 2.8 8.6 9.5-.3 3.5 3.2 1.9 3.2-.5 0-.6.1-1 .8-1.7a10 10 0 0 0 2.3-6c.2-2.6 3.6-4.8 4.6-3 .6 1.1-.3 7.3-1.4 9-.9 1.5-4 5-5 5.7-1.3.8-1.1 1.6.4 1.8.7.2.9.1 2.3-1 3.5-3 4.6-4.4 5.4-7.1.6-2 1.5-1.5 1.5.5 0 4.1-4.3 9-8.5 10.7-1 .4-1 .8-.2 1.5 1.3 1 3.6 0 6.2-2.7 1.6-1.6 1.7-1.6 1.5-1-1 3.8-4.1 7-8.1 8-2.6.9-5.1 1.4-7 1.6-.2.1-1.8 0-3 1.5-2 2 1 3.6 2 2 .7-1.2 1-1.4 2.4-1.4 1.5 0 1.6 0 5.7-1.1 3.4-1 5.5-2 7-3.5 3.1-3 4.4-7.5 2.8-9.6-.4-.5-.4-.5.2-1.8 1.2-2.5 1-5.8-.6-7.6-.6-.7-.6-.9-.7-2.5 0-3.8-3.9-6.7-7-5.3Zm-14.3 9.7c1.7.9.7 5.2-1.2 5.7-.7.1-3.7-1.4-1.3-4.6 1-1.5 1.4-1.7 2.6-1Z" clip-rule="evenodd"/>
</svg>
